packages/icons/svg/Fill/skip-forward.svg

<svg fill="none" height="24" viewBox="0 0 24 24" width="24" xmlns="http://www.w3.org/2000/svg"><path clip-rule="evenodd" d="m16 6.00003c-.552 0-1 .447-1 1v3.81797c-.047-.048-.088-.1-.142-.144l-5.09898-4.21397c-.609-.502-1.477-.604-2.209-.259-.648.306-1.05.913-1.05 1.586v8.42597c0 .673.402 1.28 1.05 1.586.289.136.599.202.906.202.471 0 .935-.157 1.303-.462l5.09998-4.213c.053-.044.094-.096.141-.144v3.818c0 .553.448 1 1 1s1-.447 1-1v-9.99997c0-.553-.448-1-1-1" fill="#6b7280" fill-rule="evenodd"/></svg>

<svg width="24" height="24" viewBox="0 0 24 24" fill="none" xmlns="http://www.w3.org/2000/svg">
<g id="Icon/Fill/skip-forward">
<path id="Mask" fill-rule="evenodd" clip-rule="evenodd" d="M16 6C15.448 6 15 6.447 15 7V10.818C14.953 10.77 14.912 10.718 14.858 10.674L9.759 6.46C9.15 5.958 8.282 5.856 7.55 6.201C6.902 6.507 6.5 7.114 6.5 7.787V16.213C6.5 16.886 6.902 17.493 7.55 17.799C7.839 17.935 8.149 18.001 8.456 18.001C8.927 18.001 9.391 17.844 9.759 17.539L14.859 13.326C14.912 13.282 14.953 13.23 15 13.182V17C15 17.553 15.448 18 16 18C16.552 18 17 17.553 17 17V7C17 6.447 16.552 6 16 6Z" fill="#000000"/>
</g>
</svg>
